X:1
T:GMEA All State Band Etude2014 
T:Kevin Peek
L:1/8
M:3/4
K:Db
V:1 bass nm="BaccidentalFlat Tuba" snm="BaccidentalFlat Tu."
V:1
!p! (B,,F,,) (B,,F,,) (C,F,,) | (D,F,,) (E,3 C,) | (D,F,,) (D,F,,)!<(! (E,F,,)!<)! |!mf! F,4 F,2 | %4
 (G,2 =A,,3) (G, | F,)E, D,E, C,2 | z (E, D,)C, B,,D, | C,(G,, F,,)E,, D,,C,, | %8
 (B,,,F,,,) (B,,,F,,,) (C,,F,,,) | (D,,F,,,) E,,3 C,, | (D,,G,,) (F,,B,,) (=A,,C,) | %11
 (B,,F,,) B,,2 D,F, | G,3 (A, F,)G, | (E,F,) D,3 (D, | E,2) (D, E,2)!p! C, | %15
 (F,,2 !fermata!D,3) (=A,,, | !fermata!B,,,6) |] %17

